src/Assets/icon/icon_search.svg

<svg fill="none" height="32" viewBox="0 0 32 32" width="32" xmlns="http://www.w3.org/2000/svg"><g fill="#2977ec"><path d="m13.3334 24c2.3666-.0005 4.665-.7927 6.5293-2.2506l5.8613 5.8613 1.8854-1.8853-5.8614-5.8614c1.4587-1.8644 2.2515-4.1634 2.252-6.5306 0-5.88138-4.7853-10.66671-10.6666-10.66671-5.88138 0-10.66671 4.78533-10.66671 10.66671 0 5.8813 4.78533 10.6666 10.66671 10.6666zm0-18.66665c4.412 0 8 3.588 8 8.00005 0 4.412-3.588 8-8 8-4.41205 0-8.00005-3.588-8.00005-8 0-4.41205 3.588-8.00005 8.00005-8.00005z"/><path d="m15.216 11.448c.5053.5067.784 1.176.784 1.8853h2.6666c.0012-.7007-.1365-1.3948-.4052-2.042s-.663-1.2347-1.1601-1.72864c-2.0187-2.016-5.5187-2.016-7.53599 0l1.88269 1.88804c1.0133-1.0107 2.76-1.008 3.768-.0027z"/></g></svg>

<svg width="32" height="32" viewBox="0 0 32 32" fill="none" xmlns="http://www.w3.org/2000/svg">
<path d="M13.3334 23.9998C15.7 23.9994 17.9984 23.2071 19.8627 21.7492L25.724 27.6105L27.6094 25.7252L21.748 19.8638C23.2067 17.9994 23.9995 15.7004 24 13.3332C24 7.45184 19.2147 2.6665 13.3334 2.6665C7.45202 2.6665 2.66669 7.45184 2.66669 13.3332C2.66669 19.2145 7.45202 23.9998 13.3334 23.9998ZM13.3334 5.33317C17.7454 5.33317 21.3334 8.92117 21.3334 13.3332C21.3334 17.7452 17.7454 21.3332 13.3334 21.3332C8.92135 21.3332 5.33335 17.7452 5.33335 13.3332C5.33335 8.92117 8.92135 5.33317 13.3334 5.33317Z" fill="#2977EC"/>
<path d="M15.216 11.4481C15.7213 11.9548 16 12.6241 16 13.3334H18.6666C18.6678 12.6327 18.5301 11.9386 18.2614 11.2914C17.9927 10.6442 17.5984 10.0567 17.1013 9.56278C15.0826 7.54678 11.5826 7.54678 9.56531 9.56278L11.448 11.4508C12.4613 10.4401 14.208 10.4428 15.216 11.4481Z" fill="#2977EC"/>
</svg>
